T: Statia Donnelly
M: 6/8
L: 1/8
K: Dmix
|FGA cAG|BAG cAG|FGA cAG|Ad^c d2 A||FGA c2 A|BAG cAG||FGA ~c3|BAG cAG||FGA cAG|~B3 cAG||FGA cAA|def ~g3|dcA GEA|DED D2 A:||FGA cde|fed ~g3|dcA GEA|DED D2 A:||~d3 cAG|def g2 e|ded cAB|cec ABc||ded cA/B/c|def g2 e|dcA GEC|DED DFA||dcA cAG|AB/c/d efg|afd cAB|cBc ABc||ded cAA|def g2 e|dcA GEA|GEA GED|into Part A
